X:346
T:ON THE MOVE 
C:David Grier - Jason Carter Solo
N:From The Jason Carter CD "On The Move" Transcribed By Mike Stangeland
R:bluegrass
L:1/8
Q:1/4=235
M:4/4
K:A
z2 EF AB cd |: "A"e2 ef e2 e=f | "D"fa f=f "C#m"ed cd | "Bm"Bc BA FA BA | {=c}"E"^cA Bc BA FE | 
"A"e2 ef e2 e=f | "D"fa f=f "C#m"ed cd | "Bm"Bc BA FA BA | {=c}"E"^cA Bc "A"A4 :|: B2 =G^G B3B | 
Bc BA GF E2 | B2 =G^G "D"B3B | "A"Bc eg "D"ag ec | "E"B2 =G^G B2 BB | Bc BA "A"GF E2 | 
"D"DF Ac de fg | "E"af ed "A"cB A2 :| 


